build/img/shopping-chart-icon.svg

<svg width="74" height="74" viewBox="0 0 74 74" fill="none" xmlns="http://www.w3.org/2000/svg">
<g filter="url(#filter0_d)">
<rect x="12" y="8" width="50" height="50" fill="#BA4F4F"/>
<path fill-rule="evenodd" clip-rule="evenodd" d="M23 26C22.4477 26 22 25.5523 22 25C22 24.4477 22.4477 24 23 24H26.4458L30.2885 32.2572H37.5538L41.2034 25.8829C41.4778 25.4036 42.0888 25.2376 42.5681 25.512C43.0474 25.7864 43.2135 26.3974 42.939 26.8767L38.7133 34.2572H29.6697L29.0002 35.7435H39.5021C40.0544 35.7435 40.5021 36.1913 40.5021 36.7435C40.5021 37.2958 40.0544 37.7435 39.5021 37.7435H29.0002C28.7171 37.7435 28.4371 37.6834 28.1789 37.5671C27.1718 37.1135 26.7231 35.9293 27.1767 34.9222L28.2274 32.5893L28.2322 32.5789L25.1706 26H23ZM30 43C31.1046 43 32 42.1046 32 41C32 39.8954 31.1046 39 30 39C28.8954 39 28 39.8954 28 41C28 42.1046 28.8954 43 30 43ZM40 41C40 42.1046 39.1046 43 38 43C36.8954 43 36 42.1046 36 41C36 39.8954 36.8954 39 38 39C39.1046 39 40 39.8954 40 41ZM48 30C48 29.4477 48.4477 29 49 29C49.5523 29 50 29.4477 50 30V32H52C52.5523 32 53 32.4477 53 33C53 33.5523 52.5523 34 52 34H50V36C50 36.5523 49.5523 37 49 37C48.4477 37 48 36.5523 48 36V34H46C45.4477 34 45 33.5523 45 33C45 32.4477 45.4477 32 46 32H48V30Z" fill="#F2F5F7"/>
</g>
<defs>
<filter id="filter0_d" x="0" y="0" width="74" height="74" filterUnits="userSpaceOnUse" color-interpolation-filters="sRGB">
<feFlood flood-opacity="0" result="BackgroundImageFix"/>
<feColorMatrix in="SourceAlpha" type="matrix" values="0 0 0 0 0 0 0 0 0 0 0 0 0 0 0 0 0 0 127 0"/>
<feOffset dy="4"/>
<feGaussianBlur stdDeviation="6"/>
<feColorMatrix type="matrix" values="0 0 0 0 0.117904 0 0 0 0 0.0777445 0 0 0 0 0.0175054 0 0 0 0.2 0"/>
<feBlend mode="normal" in2="BackgroundImageFix" result="effect1_dropShadow"/>
<feBlend mode="normal" in="SourceGraphic" in2="effect1_dropShadow" result="shape"/>
</filter>
</defs>
</svg>

<svg width="74" height="74" fill="none" xmlns="http://www.w3.org/2000/svg"><g filter="url(#filter0_d)"><path fill="#BA4F4F" d="M12 8h50v50H12z"/><path fill-rule="evenodd" clip-rule="evenodd" d="M23 26a1 1 0 110-2h3.446l3.842 8.257h7.266l3.65-6.374a1 1 0 111.735.994l-4.226 7.38H29.67L29 35.743h10.502a1 1 0 010 2H29a2 2 0 01-1.823-2.82l1.05-2.334.005-.01L25.171 26H23zm7 17a2 2 0 100-4 2 2 0 000 4zm10-2a2 2 0 11-4 0 2 2 0 014 0zm8-11a1 1 0 112 0v2h2a1 1 0 110 2h-2v2a1 1 0 11-2 0v-2h-2a1 1 0 110-2h2v-2z" fill="#F2F5F7"/></g><defs><filter id="filter0_d" x="0" y="0" width="74" height="74" filterUnits="userSpaceOnUse" color-interpolation-filters="sRGB"><feFlood flood-opacity="0" result="BackgroundImageFix"/><feColorMatrix in="SourceAlpha" values="0 0 0 0 0 0 0 0 0 0 0 0 0 0 0 0 0 0 127 0"/><feOffset dy="4"/><feGaussianBlur stdDeviation="6"/><feColorMatrix values="0 0 0 0 0.117904 0 0 0 0 0.0777445 0 0 0 0 0.0175054 0 0 0 0.2 0"/><feBlend in2="BackgroundImageFix" result="effect1_dropShadow"/><feBlend in="SourceGraphic" in2="effect1_dropShadow" result="shape"/></filter></defs></svg>
